Adwaita++-Light/panel/16/youtube-indicator-light.svg

<svg height="16" width="16" xmlns="http://www.w3.org/2000/svg">
  <path d="m8.1074219 2c-1.8698.0004-4.6282781.1237438-5.4550781.1523438-.8988001.0859999-1.2304032.1340312-1.72070318.5820312-.75482.7106-.93164062 2.1081938-.93164062 4.2460938v2.0332031c.00000005 2.4374001.30353375 3.6769061.80859375 4.1289061.57708005.529.95782375.569813 1.33984375.632813.1489.023 1.207325.224609 5.890625.224609 2.9195995 0 5.4285005-.148641 5.6874995-.181641.419001-.057 1.011704-.138781 1.470704-.675781.671-.812.802734-2.161488.802734-4.1171874v-2.3671875c0-1.2653-.064734-3.0508812-.802734-3.8007812-.56-.5053-.763922-.6463844-1.919922-.7089844-.326-.0154-3.177222-.1487775-5.1699221-.1484375zm-1.1074219 3 4 3-4 3z" fill="#444"/>
</svg>

<svg xmlns="http://www.w3.org/2000/svg" width="16" height="16" version="1.1">
 <defs>
  <style id="current-color-scheme" type="text/css">
   .ColorScheme-Text { color:#444444; } .ColorScheme-Highlight { color:#4285f4; }
  </style>
 </defs>
 <path style="fill:currentColor" class="ColorScheme-Text" d="M 8.1074219 2 C 6.2376219 2.0004 3.4791438 2.1237438 2.6523438 2.1523438 C 1.7535437 2.2383437 1.4219406 2.286375 0.93164062 2.734375 C 0.17682062 3.444975 -1.4802974e-16 4.8425688 0 6.9804688 L 0 9.0136719 C 5.33e-08 11.451072 0.30353375 12.690578 0.80859375 13.142578 C 1.3856738 13.671578 1.7664175 13.712391 2.1484375 13.775391 C 2.2973375 13.798391 3.3557625 14 8.0390625 14 C 10.958662 14 13.467563 13.851359 13.726562 13.818359 C 14.145563 13.761359 14.738266 13.679578 15.197266 13.142578 C 15.868266 12.330578 16 10.98109 16 9.0253906 L 16 6.6582031 C 16 5.3929031 15.935266 3.6073219 15.197266 2.8574219 C 14.637266 2.3521219 14.433344 2.2110375 13.277344 2.1484375 C 12.951344 2.1330375 10.100122 1.99966 8.1074219 2 z M 7 5 L 11 8 L 7 11 L 7 5 z"/>
</svg>
